svg/icon.svg

<?xml version="1.0" encoding="UTF-8" standalone="no"?>
<svg
   xmlns:dc="http://purl.org/dc/elements/1.1/"
   xmlns:cc="http://creativecommons.org/ns#"
   xmlns:rdf="http://www.w3.org/1999/02/22-rdf-syntax-ns#"
   xmlns:svg="http://www.w3.org/2000/svg"
   xmlns="http://www.w3.org/2000/svg"
   xmlns:sodipodi="http://sodipodi.sourceforge.net/DTD/sodipodi-0.dtd"
   xmlns:inkscape="http://www.inkscape.org/namespaces/inkscape"
   inkscape:export-ydpi="24.000002"
   inkscape:export-xdpi="24.000002"
   inkscape:export-filename="D:\Downloads\icon16.png"
   sodipodi:docname="02_layouts.svg"
   inkscape:version="1.0 (4035a4fb49, 2020-05-01)"
   id="svg8"
   version="1.1"
   viewBox="0 0 16.933333 16.933334"
   height="64"
   width="64">
  <defs
     id="defs2">
    <rect
       id="rect848"
       height="16.906861"
       width="16.906861"
       y="0.01323625"
       x="0.01323625" />
  </defs>
  <sodipodi:namedview
     inkscape:snap-global="false"
     inkscape:window-maximized="1"
     inkscape:window-y="-8"
     inkscape:window-x="-8"
     inkscape:window-height="1017"
     inkscape:window-width="1920"
     units="px"
     showgrid="false"
     inkscape:document-rotation="0"
     inkscape:current-layer="layer1"
     inkscape:document-units="mm"
     inkscape:cy="33.909397"
     inkscape:cx="32.168696"
     inkscape:zoom="9.6377715"
     inkscape:pageshadow="2"
     inkscape:pageopacity="0.0"
     borderopacity="1.0"
     bordercolor="#666666"
     pagecolor="#ffffff"
     id="base" />
  <metadata
     id="metadata5">
    <rdf:RDF>
      <cc:Work
         rdf:about="">
        <dc:format>image/svg+xml</dc:format>
        <dc:type
           rdf:resource="http://purl.org/dc/dcmitype/StillImage" />
        <dc:title></dc:title>
      </cc:Work>
    </rdf:RDF>
  </metadata>
  <g
     id="layer1"
     inkscape:groupmode="layer"
     inkscape:label="Layer 1">
    <rect
       ry="3.1618264"
       y="0"
       x="-1.3877788e-17"
       height="16.933332"
       width="16.933332"
       id="rect1090"
       style="fill:#f5f5f5;fill-opacity:1;stroke-width:0.012797;stroke-linecap:round;stroke-linejoin:round" />
    <path
       transform="scale(0.26458333)"
       d="M 52.050781 7.2675781 L 7.2558594 52.0625 L 10.46875 55.275391 L 19.744141 46 L 28 46 L 28 37.744141 L 30 35.744141 L 30 46 L 40 46 L 40 32 L 33.744141 32 L 35.744141 30 L 40 30 L 40 25.744141 L 42 23.744141 L 42 30 L 53 30 L 53 15 L 50.744141 15 L 55.263672 10.480469 L 52.050781 7.2675781 z M 42 32 L 42 46 L 53 46 L 53 32 L 42 32 z "
       style="fill:#000000;fill-opacity:1;stroke-width:0.0332026;stroke-linecap:round;stroke-linejoin:round"
       id="rect1045" />
    <path
       sodipodi:nodetypes="cccccccccccccccccccccccccc"
       d="M 2.1166667,3.96875 V 6.35 H 4.2333333 V 3.96875 Z m 2.9104166,0 V 6.35 H 8.4490995 L 10.842122,3.96875 Z m -2.9104166,3.175 V 9.2604167 H 4.2333333 V 7.14375 Z m 2.9104166,0 V 9.2604167 H 5.5014715 L 7.7590649,7.14375 Z m -2.9104166,2.910417 v 2.116666 h 0.4376308 l 1.6790358,-1.74431 v -0.372356 z"
       style="fill:#ff6600;fill-opacity:1;stroke-width:0.00878486;stroke-linecap:round;stroke-linejoin:round"
       id="rect1047" />
  </g>
</svg>

<svg width="64" height="64" version="1.1" viewBox="0 0 16.9 16.9" xmlns="http://www.w3.org/2000/svg">
 <g stroke-linecap="round" stroke-linejoin="round">
  <rect x="-1.39e-17" width="16.9" height="16.9" ry="3.16" fill="#f5f5f5" stroke-width=".0128"/>
  <path transform="scale(.265)" d="m52.1 7.27-44.8 44.8 3.21 3.21 9.28-9.28h8.26v-8.26l2-2v10.3h10v-14h-6.26l2-2h4.26v-4.26l2-2v6.26h11v-15h-2.26l4.52-4.52-3.21-3.21zm-10.1 24.7v14h11v-14h-11z" stroke-width=".0332"/>
  <path d="m2.12 3.97v2.38h2.12v-2.38zm2.91 0v2.38h3.42l2.39-2.38zm-2.91 3.18v2.12h2.12v-2.12zm2.91 0v2.12h.474l2.26-2.12zm-2.91 2.91v2.12h.438l1.68-1.74v-.372z" fill="#f60" stroke-width=".00878"/>
 </g>
</svg>
